X: 1
T:The Cuckoo's Nest
M:4/4
C:
S:Seabright
N:as taught by Evan Shepherd (c.f. Sherborne)
A:Adderbury
O:English
R:Reel
%P:A(AB)$^5$
P:A(AB)5
K:EDor
%:
%:
I:speed 400
P:A
%
|: F2     | GAGF              E2    e2     | B2   B2      A2  B2 |
w: From~the coun-ty where the shore and~the  moun-tains   meet,_
w: We       gath-er for   the danc-ing       we   love    best, Where~the
            FGFE              D2    EF     | G2    A2     E2     :|
w:          Wands_ in our     hands and_     bells on~our feet,
w:          tall_ trees_      grow~you'll find the cuc-koo's nest.
P:B
|: z2 | e2 e2 e2 fe | ^d2 B2 B3  c  | =d2 d2 d2 ed |  c2 A2 A2  \
   z2 | GAGF  E2 e2 |  B2 B2 A2  B2 |  FGFE  D2 EF |  G2 A2 E2 :|
